src/assets/duotone/ReceiptItem.svg

<svg width="24" height="24" viewBox="0 0 24 24"  xmlns="http://www.w3.org/2000/svg">
<path d="M22 6.00002V8.42002C22 10 21 11 19.42 11H16V4.01002C16 2.90002 16.91 1.99002 18.02 2.00002C19.11 2.01002 20.11 2.45002 20.83 3.17002C21.55 3.90002 22 4.90002 22 6.00002Z" />
<path opacity="0.4" d="M2 7V21C2 21.83 2.94 22.3 3.6 21.8L5.31 20.52C5.71 20.22 6.27 20.26 6.63 20.62L8.29 22.29C8.68 22.68 9.32 22.68 9.71 22.29L11.39 20.61C11.74 20.26 12.3 20.22 12.69 20.52L14.4 21.8C15.06 22.29 16 21.82 16 21V4C16 2.9 16.9 2 18 2H7H6C3 2 2 3.79 2 6V7Z" />
<path d="M12 12.26H9C8.59 12.26 8.25 12.6 8.25 13.01C8.25 13.42 8.59 13.76 9 13.76H12C12.41 13.76 12.75 13.42 12.75 13.01C12.75 12.6 12.41 12.26 12 12.26Z" />
<path d="M9 9.76001H12C12.41 9.76001 12.75 9.42001 12.75 9.01001C12.75 8.60001 12.41 8.26001 12 8.26001H9C8.59 8.26001 8.25 8.60001 8.25 9.01001C8.25 9.42001 8.59 9.76001 9 9.76001Z" />
<path d="M5.97021 8.01001C5.41021 8.01001 4.97021 8.46001 4.97021 9.01001C4.97021 9.56001 5.42021 10.01 5.97021 10.01C6.52021 10.01 6.97021 9.56001 6.97021 9.01001C6.97021 8.46001 6.52021 8.01001 5.97021 8.01001Z" />
<path d="M5.97021 12.01C5.41021 12.01 4.97021 12.46 4.97021 13.01C4.97021 13.56 5.42021 14.01 5.97021 14.01C6.52021 14.01 6.97021 13.56 6.97021 13.01C6.97021 12.46 6.52021 12.01 5.97021 12.01Z" />
</svg>

<?xml version="1.0" encoding="UTF-8"?>
<svg width="24" height="24" viewBox="0 0 24 24" xmlns="http://www.w3.org/2000/svg">
 <path d="m22 6v2.42c0 1.58-1 2.58-2.58 2.58h-3.42v-6.99c0-1.11 0.91-2.02 2.02-2.01 1.09 0.01 2.09 0.45 2.81 1.17 0.72 0.73 1.17 1.73 1.17 2.83z"/>
 <path d="m2 7v14c0 0.83 0.94 1.3 1.6 0.8l1.71-1.28c0.4-0.3 0.96-0.26 1.32 0.1l1.66 1.67c0.39 0.39 1.03 0.39 1.42 0l1.68-1.68c0.35-0.35 0.91-0.39 1.3-0.09l1.71 1.28c0.66 0.49 1.6 0.02 1.6-0.8v-17c0-1.1 0.9-2 2-2h-12c-3 0-4 1.79-4 4v1z" opacity=".4"/>
 <path d="m12 12.26h-3c-0.41 0-0.75 0.34-0.75 0.75s0.34 0.75 0.75 0.75h3c0.41 0 0.75-0.34 0.75-0.75s-0.34-0.75-0.75-0.75z"/>
 <path d="m9 9.76h3c0.41 0 0.75-0.34 0.75-0.75s-0.34-0.75-0.75-0.75h-3c-0.41 0-0.75 0.34-0.75 0.75s0.34 0.75 0.75 0.75z"/>
 <path d="m5.9702 8.01c-0.56 0-1 0.45-1 1s0.45 0.99999 1 0.99999 1-0.44999 1-0.99999-0.45-1-1-1z"/>
 <path d="m5.9702 12.01c-0.56 0-1 0.45-1 1s0.45 1 1 1 1-0.45 1-1-0.45-1-1-1z"/>
</svg>
